flaticon/constructions/pipe-8.svg

<svg xmlns="http://www.w3.org/2000/svg" width="32" height="32" viewBox="0 0 24 24">
    <path d="M 22.800781 12.199219 L 15.933594 12.199219 C 15.777344 11.726562 15.339844 11.398438 14.800781 11.398438 L 13.199219 11.398438 L 13.199219 9.074219 C 13.371094 8.976562 13.527344 8.855469 13.667969 8.722656 L 15.679688 9.078125 C 15.800781 9.121094 15.878906 9.121094 16 9.121094 C 16.28125 9.121094 16.519531 9.039062 16.71875 8.878906 C 17.039062 8.640625 17.199219 8.320312 17.199219 7.921875 L 17.199219 6.078125 C 17.199219 5.679688 17.039062 5.359375 16.71875 5.121094 C 16.398438 4.878906 16.039062 4.800781 15.679688 4.921875 L 13.667969 5.277344 C 13.234375 4.859375 12.648438 4.601562 12 4.601562 C 11.351562 4.601562 10.765625 4.859375 10.332031 5.277344 L 8.320312 4.921875 C 7.960938 4.839844 7.601562 4.878906 7.28125 5.121094 C 6.960938 5.359375 6.800781 5.679688 6.800781 6.078125 L 6.800781 7.921875 C 6.800781 8.320312 7 8.679688 7.28125 8.878906 C 7.480469 9.039062 7.761719 9.121094 8 9.121094 C 8.121094 9.121094 8.199219 9.121094 8.320312 9.078125 L 10.332031 8.722656 C 10.472656 8.855469 10.628906 8.976562 10.800781 9.074219 L 10.800781 11.398438 L 9.199219 11.398438 C 8.660156 11.398438 8.222656 11.726562 8.066406 12.199219 L 1.199219 12.199219 C 0.519531 12.199219 0 12.71875 0 13.398438 L 0 17.398438 C 0 18.078125 0.519531 18.601562 1.199219 18.601562 L 8.066406 18.601562 C 8.222656 19.074219 8.660156 19.398438 9.199219 19.398438 L 14.800781 19.398438 C 15.339844 19.398438 15.777344 19.074219 15.933594 18.601562 L 22.800781 18.601562 C 23.480469 18.601562 24 18.078125 24 17.398438 L 24 13.398438 C 24 12.71875 23.480469 12.199219 22.800781 12.199219 Z M 15.839844 5.679688 L 15.878906 5.679688 C 16 5.679688 16.121094 5.679688 16.238281 5.761719 C 16.359375 5.839844 16.398438 5.960938 16.398438 6.078125 L 16.398438 7.921875 C 16.398438 8.039062 16.359375 8.160156 16.238281 8.199219 C 16.121094 8.28125 16 8.320312 15.878906 8.28125 L 15.839844 8.28125 L 14.179688 8.003906 C 14.300781 7.742188 14.375 7.453125 14.394531 7.148438 C 14.394531 7.144531 14.394531 7.136719 14.394531 7.128906 C 14.398438 7.085938 14.398438 7.042969 14.398438 7 C 14.398438 6.957031 14.398438 6.914062 14.394531 6.871094 C 14.394531 6.863281 14.394531 6.855469 14.394531 6.847656 C 14.375 6.53125 14.292969 6.230469 14.160156 5.960938 Z M 13.171875 5.914062 C 13.179688 5.929688 13.191406 5.945312 13.199219 5.960938 C 13.40625 6.195312 13.527344 6.457031 13.574219 6.722656 C 13.574219 6.726562 13.578125 6.730469 13.578125 6.738281 C 13.582031 6.75 13.582031 6.765625 13.585938 6.78125 C 13.585938 6.792969 13.585938 6.804688 13.589844 6.816406 C 13.589844 6.828125 13.589844 6.839844 13.59375 6.851562 C 13.59375 6.867188 13.59375 6.882812 13.597656 6.898438 C 13.597656 6.90625 13.597656 6.917969 13.597656 6.925781 C 13.597656 6.949219 13.601562 6.976562 13.601562 7 C 13.601562 7.023438 13.597656 7.050781 13.597656 7.074219 C 13.578125 7.445312 13.425781 7.777344 13.199219 8.039062 C 13.171875 8.070312 13.148438 8.097656 13.128906 8.132812 C 12.839844 8.421875 12.441406 8.601562 12 8.601562 C 11.535156 8.601562 11.121094 8.402344 10.828125 8.085938 C 10.820312 8.070312 10.808594 8.054688 10.800781 8.039062 C 10.75 7.992188 10.703125 7.933594 10.65625 7.867188 C 10.507812 7.636719 10.417969 7.371094 10.402344 7.082031 C 10.402344 7.054688 10.398438 7.027344 10.398438 7 C 10.398438 6.519531 10.640625 6.160156 10.800781 5.960938 C 10.824219 5.933594 10.84375 5.910156 10.859375 5.882812 C 11.148438 5.585938 11.554688 5.398438 12 5.398438 C 12.460938 5.398438 12.878906 5.597656 13.171875 5.914062 Z M 8.160156 8.320312 L 8.121094 8.320312 C 8 8.320312 7.878906 8.320312 7.761719 8.238281 C 7.640625 8.160156 7.601562 8.039062 7.601562 7.921875 L 7.601562 6.078125 C 7.601562 5.960938 7.679688 5.839844 7.761719 5.761719 C 7.839844 5.71875 7.921875 5.679688 8 5.679688 C 8.039062 5.679688 8.078125 5.679688 8.121094 5.71875 L 8.160156 5.71875 L 9.820312 5.996094 C 9.699219 6.257812 9.625 6.546875 9.605469 6.847656 C 9.605469 6.855469 9.605469 6.863281 9.605469 6.871094 C 9.601562 6.914062 9.601562 6.957031 9.601562 7 C 9.601562 7.042969 9.601562 7.085938 9.605469 7.128906 C 9.605469 7.136719 9.605469 7.144531 9.605469 7.152344 C 9.625 7.46875 9.707031 7.769531 9.839844 8.039062 Z M 11.601562 9.367188 C 11.730469 9.386719 11.863281 9.398438 12 9.398438 C 12.136719 9.398438 12.269531 9.386719 12.398438 9.367188 L 12.398438 11.398438 L 11.601562 11.398438 Z M 0.800781 17.398438 L 0.800781 14.601562 L 2 14.601562 C 2.238281 14.601562 2.398438 14.441406 2.398438 14.199219 C 2.398438 13.960938 2.238281 13.800781 2 13.800781 L 0.800781 13.800781 L 0.800781 13.398438 C 0.800781 13.160156 0.960938 13 1.199219 13 L 8 13 L 8 13.800781 L 5.199219 13.800781 C 4.960938 13.800781 4.800781 13.960938 4.800781 14.199219 C 4.800781 14.441406 4.960938 14.601562 5.199219 14.601562 L 8 14.601562 L 8 17.800781 L 1.199219 17.800781 C 0.960938 17.800781 0.800781 17.640625 0.800781 17.398438 Z M 14.800781 18.601562 L 9.199219 18.601562 C 8.960938 18.601562 8.800781 18.441406 8.800781 18.199219 L 8.800781 12.601562 C 8.800781 12.359375 8.960938 12.199219 9.199219 12.199219 L 14.800781 12.199219 C 15.039062 12.199219 15.199219 12.359375 15.199219 12.601562 L 15.199219 18.199219 C 15.199219 18.441406 15.039062 18.601562 14.800781 18.601562 Z M 22.800781 17.800781 L 16 17.800781 L 16 14.601562 L 19.601562 14.601562 C 19.839844 14.601562 20 14.441406 20 14.199219 C 20 13.960938 19.839844 13.800781 19.601562 13.800781 L 16 13.800781 L 16 13 L 22.800781 13 C 23.039062 13 23.199219 13.160156 23.199219 13.398438 L 23.199219 13.800781 L 22.800781 13.800781 C 22.558594 13.800781 22.398438 13.960938 22.398438 14.199219 C 22.398438 14.441406 22.558594 14.601562 22.800781 14.601562 L 23.199219 14.601562 L 23.199219 17.398438 C 23.199219 17.640625 23.039062 17.800781 22.800781 17.800781 Z M 22.800781 17.800781"/>
    <path d="M3.601562 13.800781C3.359375 13.800781 3.199219 13.960938 3.199219 14.199219 3.199219 14.441406 3.359375 14.601562 3.601562 14.601562 3.839844 14.601562 4 14.441406 4 14.199219 4 13.960938 3.839844 13.800781 3.601562 13.800781zM21.199219 13.800781C20.960938 13.800781 20.800781 13.960938 20.800781 14.199219 20.800781 14.441406 20.960938 14.601562 21.199219 14.601562 21.441406 14.601562 21.601562 14.441406 21.601562 14.199219 21.601562 13.960938 21.441406 13.800781 21.199219 13.800781zM21.199219 13.800781"/>
</svg>

<svg xmlns="http://www.w3.org/2000/svg" width="32" height="32" viewBox="0 0 24 24">
    <path d="M22.8 12.2h-6.866a1.17 1.17 0 0 0-1.133-.802h-1.602V9.074a2.45 2.45 0 0 0 .469-.351l2.012.355c.12.043.199.043.32.043.281 0 .52-.082.719-.242.32-.238.48-.559.48-.957V6.078c0-.398-.16-.719-.48-.957-.32-.242-.68-.32-1.04-.2l-2.011.356a2.394 2.394 0 0 0-3.336 0L8.32 4.922c-.36-.082-.718-.043-1.039.2-.32.237-.48.558-.48.956v1.844c0 .398.199.758.48.957.2.16.48.242.719.242.121 0 .2 0 .32-.043l2.012-.355c.14.132.297.254.469.351v2.324H9.199c-.539 0-.976.329-1.133.801H1.2C.52 12.2 0 12.72 0 13.4v4c0 .68.52 1.203 1.2 1.203h6.866c.157.472.594.796 1.133.796h5.602c.539 0 .976-.324 1.133-.796H22.8c.68 0 1.199-.524 1.199-1.204v-4c0-.68-.52-1.199-1.2-1.199zm-6.96-6.52h.039c.121 0 .242 0 .36.082.12.078.16.199.16.316v1.844c0 .117-.04.238-.16.277-.118.082-.239.121-.36.082h-.04l-1.66-.277a2.4 2.4 0 0 0 .216-.856v-.02c.003-.042.003-.085.003-.128s0-.086-.003-.129v-.023a2.33 2.33 0 0 0-.235-.887zm-2.668.234c.008.016.02.031.027.047.207.234.328.496.375.762 0 .004.004.007.004.015.004.012.004.028.008.043 0 .012 0 .024.004.035 0 .012 0 .024.004.036 0 .015 0 .03.004.046v.028c0 .023.004.05.004.074 0 .023-.004.05-.004.074-.02.371-.172.703-.399.965a.534.534 0 0 0-.07.094 1.591 1.591 0 0 1-2.3-.047c-.009-.016-.02-.031-.028-.047a1.081 1.081 0 0 1-.145-.172 1.599 1.599 0 0 1-.254-.785c0-.027-.004-.055-.004-.082 0-.48.243-.84.403-1.04a.51.51 0 0 0 .058-.077c.29-.297.696-.485 1.141-.485.46 0 .879.2 1.172.516zM8.16 8.32h-.039c-.121 0-.242 0-.36-.082a.357.357 0 0 1-.16-.316V6.078c0-.117.079-.238.16-.316A.528.528 0 0 1 8 5.68c.04 0 .078 0 .121.039h.04l1.66.277a2.4 2.4 0 0 0-.216.852v.023c-.003.043-.003.086-.003.129 0 .043 0 .086.003.129v.023c.02.317.102.618.235.887zm3.442 1.047a2.655 2.655 0 0 0 .796 0v2.031h-.796zM.8 17.398v-2.796H2c.238 0 .398-.16.398-.403 0-.238-.16-.398-.398-.398H.8v-.403c0-.238.16-.398.4-.398H8v.8H5.2c-.24 0-.4.16-.4.4 0 .241.16.402.4.402H8V17.8H1.2c-.24 0-.4-.16-.4-.403zm14 1.204H9.199c-.238 0-.398-.16-.398-.403v-5.597c0-.243.16-.403.398-.403h5.602c.238 0 .398.16.398.403v5.597c0 .242-.16.403-.398.403zm8-.801H16v-3.2h3.602c.238 0 .398-.16.398-.402 0-.238-.16-.398-.398-.398H16V13h6.8c.24 0 .4.16.4.398v.403h-.4c-.241 0-.402.16-.402.398 0 .242.16.403.403.403h.398v2.796c0 .243-.16.403-.398.403zm0 0"/>
    <path d="M3.602 13.8c-.243 0-.403.16-.403.4 0 .241.16.402.403.402.238 0 .398-.16.398-.403 0-.238-.16-.398-.398-.398zm0 0M21.2 13.8c-.24 0-.4.16-.4.4 0 .241.16.402.4.402.241 0 .402-.16.402-.403 0-.238-.16-.398-.403-.398zm0 0"/>
</svg>
